;generated by ffslicer 1.30.3 03/25/23 17:42:39
;right_extruder_material: PLA
;layer_height: 0.2
;perimeter_shells: 2
;top_solid_layers: 4
;bottom_solid_layers: 3
;fill_density: 15%
;fill_pattern: hexagon
;base_print_speed: 100
;travel_speed: 120
;right_extruder_temperature: 205
;left_extruder_temperature: 0
;platform_temperature: 60
;right_extruder_temperature_raft0: 0
;left_extruder_temperature_raft0: 0
;right_extruder_temperature_reset: 
;left_extruder_temperature_reset: 
;start gcode
M140 S60 T0
M104 S205 T0
M104 S0 T1
G90
G28
G1 Z50.000 F420
G161 X Y F3300
M190 S60 T0
M109 S205 T0
M109 S0 T1
G92 E.0000
;layer_count: 170
M108 T0
G1 X168.00 Y132.50 F7200
;preExtrude:0.20
;preExtruder0
G1 Z.200 F420
G1 X168.00 Y132.50 F7200
G1 X126.50 Y132.50 E5.5212 F1200
G1 X126.50 Y54.00 E15.9649
;raft
;layer:0.30
;shell
M106 S255
G1 E10.9649 F2400
G1 Z.300 F420
G1 X135.10 Y62.60 F3000
G1 E15.9649 F2400
G1 X135.10 Y62.60 F3000
G1 X145.10 Y62.60 E16.4638 F1200
G1 X155.10 Y62.60 E16.9627
G1 X162.90 Y62.60 E17.3518
G1 X162.90 Y64.80 E17.4616
G1 X162.90 Y74.80 E17.9605
G1 X162.90 Y84.80 E18.4594
G1 X162.90 Y123.90 E20.4101
G1 X135.10 Y123.90 E21.7970
G1 X135.10 Y62.60 E24.8553
G1 X134.70 Y62.20 F3000
G1 X163.30 Y62.20 E26.2822 F1200
G1 X163.30 Y124.30 E29.3803
G1 X134.70 Y124.30 E30.8072
G1 X134.70 Y62.20 E33.9054
;infill
G1 E28.9054 F2400
G1 X162.62 Y63.30 F3000
G1 E33.9054 F2400
G1 X162.62 Y63.30 F3000
G1 X162.20 Y62.88 E33.9350 F1200
G1 X161.63 Y62.88 E33.9635
G1 X162.62 Y63.87 E34.0333
G1 X162.62 Y64.44 E34.0617
G1 X161.06 Y62.88 E34.1718
G1 X160.49 Y62.88 E34.2002
G1 X162.62 Y65.01 E34.3505
G1 X162.62 Y65.57 E34.3785
G1 X159.92 Y62.88 E34.5686
G1 X159.35 Y62.88 E34.5971
G1 X162.62 Y66.14 E34.8274
G1 X162.62 Y66.71 E34.8559
G1 X158.79 Y62.88 E35.1261
G1 X158.22 Y62.88 E35.1545
G1 X162.62 Y67.28 E35.4650
G1 X162.62 Y67.85 E35.4934
G1 X157.65 Y62.88 E35.8441
G1 X157.08 Y62.88 E35.8725
G1 X162.62 Y68.42 E36.2634
G1 X162.62 Y68.99 E36.2918
G1 X156.51 Y62.88 E36.7229
G1 X155.94 Y62.88 E36.7513
G1 X162.62 Y69.56 E37.2227
G1 X162.62 Y70.12 E37.2506
G1 X155.37 Y62.88 E37.7618
G1 X154.81 Y62.88 E37.7897
G1 X162.62 Y70.69 E38.3407
G1 X162.62 Y71.26 E38.3692
G1 X154.24 Y62.88 E38.9604
G1 X153.67 Y62.88 E38.9889
G1 X162.62 Y71.83 E39.6203
G1 X162.62 Y72.40 E39.6488
G1 X153.10 Y62.88 E40.3205
G1 X152.53 Y62.88 E40.3489
G1 X162.62 Y72.97 E41.0608
G1 X162.62 Y73.53 E41.0887
G1 X151.96 Y62.88 E41.8405
G1 X151.40 Y62.88 E41.8685
G1 X162.62 Y74.10 E42.6601
G1 X162.62 Y74.67 E42.6885
G1 X150.83 Y62.88 E43.5204
G1 X150.26 Y62.88 E43.5488
G1 X162.62 Y75.24 E44.4209
G1 X162.62 Y75.81 E44.4493
G1 X149.69 Y62.88 E45.3616
G1 X149.12 Y62.88 E45.3900
G1 X162.62 Y76.38 E46.3425
G1 X162.62 Y76.95 E46.3710
G1 X148.55 Y62.88 E47.3637
G1 X147.98 Y62.88 E47.3921
G1 X162.62 Y77.51 E48.4247
G1 X162.62 Y78.08 E48.4531
G1 X147.41 Y62.88 E49.5259
G1 X146.85 Y62.88 E49.5539
G1 X162.62 Y78.65 E50.6665
G1 X162.62 Y79.22 E50.6950
G1 X146.28 Y62.88 E51.8478
G1 X145.71 Y62.88 E51.8763
G1 X162.62 Y79.79 E53.0694
G1 X162.62 Y80.36 E53.0978
G1 X145.14 Y62.88 E54.3311
G1 X144.57 Y62.88 E54.3596
G1 X162.62 Y80.93 E55.6331
G1 X162.62 Y81.49 E55.6610
G1 X144.00 Y62.88 E56.9744
G1 X143.44 Y62.88 E57.0023
G1 X162.62 Y82.06 E58.3556
G1 X162.62 Y82.63 E58.3840
G1 X142.87 Y62.88 E59.7775
G1 X142.30 Y62.88 E59.8059
G1 X162.62 Y83.20 E61.2396
G1 X162.62 Y83.77 E61.2681
G1 X141.73 Y62.88 E62.7420
G1 X141.16 Y62.88 E62.7704
G1 X162.62 Y84.34 E64.2845
G1 X162.62 Y84.91 E64.3130
G1 X140.59 Y62.88 E65.8673
G1 X140.02 Y62.88 E65.8957
G1 X162.62 Y85.47 E67.4899
G1 X162.62 Y86.04 E67.5184
G1 X139.46 Y62.88 E69.1524
G1 X138.89 Y62.88 E69.1809
G1 X162.62 Y86.61 E70.8552
G1 X162.62 Y87.18 E70.8836
G1 X138.32 Y62.88 E72.5981
G1 X137.75 Y62.88 E72.6265
G1 X162.62 Y87.75 E74.3812
G1 X162.62 Y88.32 E74.4097
G1 X137.18 Y62.88 E76.2046
G1 X136.61 Y62.88 E76.2330
G1 X162.62 Y88.88 E78.0678
G1 X162.62 Y89.45 E78.0963
G1 X136.05 Y62.88 E79.9709
G1 X135.48 Y62.88 E79.9994
G1 X162.62 Y90.02 E81.9142
G1 X162.62 Y90.59 E81.9427
G1 X135.38 Y63.35 E83.8646
G1 X135.38 Y63.92 E83.8930
G1 X162.62 Y91.16 E85.8150
G1 X162.62 Y91.73 E85.8434
G1 X135.38 Y64.49 E87.7653
G1 X135.38 Y65.06 E87.7938
G1 X162.62 Y92.30 E89.7157
G1 X162.62 Y92.86 E89.7436
G1 X135.38 Y65.62 E91.6656
G1 X135.38 Y66.19 E91.6940
G1 X162.62 Y93.43 E93.6159
G1 X162.62 Y94.00 E93.6444
G1 X135.38 Y66.76 E95.5663
G1 X135.38 Y67.33 E95.5948
G1 X162.62 Y94.57 E97.5167
G1 X162.62 Y95.14 E97.5451
G1 X135.38 Y67.90 E99.4671
G1 X135.38 Y68.47 E99.4955
G1 X162.62 Y95.71 E101.4174
G1 X162.62 Y96.28 E101.4459
G1 X135.38 Y69.04 E103.3678
G1 X135.38 Y69.60 E103.3957
G1 X162.62 Y96.84 E105.3177
G1 X162.62 Y97.41 E105.3461
G1 X135.38 Y70.17 E107.2680
G1 X135.38 Y70.74 E107.2965
G1 X162.62 Y97.98 E109.2184
G1 X162.62 Y98.55 E109.2468
G1 X135.38 Y71.31 E111.1688
G1 X135.38 Y71.88 E111.1972
G1 X162.62 Y99.12 E113.1191
G1 X162.62 Y99.69 E113.1476
G1 X135.38 Y72.45 E115.0695
G1 X135.38 Y73.02 E115.0979
G1 X162.62 Y100.26 E117.0199
G1 X162.62 Y100.82 E117.0478
G1 X135.38 Y73.58 E118.9697
G1 X135.38 Y74.15 E118.9982
G1 X162.62 Y101.39 E120.9201
G1 X162.62 Y101.96 E120.9485
G1 X135.38 Y74.72 E122.8705
G1 X135.38 Y75.29 E122.8989
G1 X162.62 Y102.53 E124.8208
G1 X162.62 Y103.10 E124.8493
G1 X135.38 Y75.86 E126.7712
G1 X135.38 Y76.43 E126.7996
G1 X162.62 Y103.67 E128.7216
G1 X162.62 Y104.23 E128.7495
G1 X135.38 Y76.99 E130.6714
G1 X135.38 Y77.56 E130.6999
G1 X162.62 Y104.80 E132.6218
G1 X162.62 Y105.37 E132.6502
G1 X135.38 Y78.13 E134.5721
G1 X135.38 Y78.70 E134.6006
G1 X162.62 Y105.94 E136.5225
G1 X162.62 Y106.51 E136.5509
G1 X135.38 Y79.27 E138.4729
G1 X135.38 Y79.84 E138.5013
G1 X162.62 Y107.08 E140.4232
G1 X162.62 Y107.65 E140.4517
G1 X135.38 Y80.41 E142.3736
G1 X135.38 Y80.97 E142.4015
G1 X162.62 Y108.21 E144.3234
G1 X162.62 Y108.78 E144.3519
G1 X135.38 Y81.54 E146.2738
G1 X135.38 Y82.11 E146.3022
G1 X162.62 Y109.35 E148.2242
G1 X162.62 Y109.92 E148.2526
G1 X135.38 Y82.68 E150.1745
G1 X135.38 Y83.25 E150.2030
G1 X162.62 Y110.49 E152.1249
G1 X162.62 Y111.06 E152.1533
G1 X135.38 Y83.82 E154.0752
G1 X135.38 Y84.39 E154.1037
G1 X162.62 Y111.63 E156.0256
G1 X162.62 Y112.19 E156.0535
G1 X135.38 Y84.95 E157.9755
G1 X135.38 Y85.52 E158.0039
G1 X162.62 Y112.76 E159.9258
G1 X162.62 Y113.33 E159.9543
G1 X135.38 Y86.09 E161.8762
G1 X135.38 Y86.66 E161.9046
G1 X162.62 Y113.90 E163.8265
G1 X162.62 Y114.47 E163.8550
G1 X135.38 Y87.23 E165.7769
G1 X135.38 Y87.80 E165.8053
G1 X162.62 Y115.04 E167.7273
G1 X162.62 Y115.60 E167.7552
G1 X135.38 Y88.37 E169.6768
G1 X135.38 Y88.93 E169.7047
G1 X162.62 Y116.17 E171.6266
G1 X162.62 Y116.74 E171.6551
G1 X135.38 Y89.50 E173.5770
G1 X135.38 Y90.07 E173.6054
G1 X162.62 Y117.31 E175.5274
G1 X162.62 Y117.88 E175.5558
G1 X135.38 Y90.64 E177.4777
G1 X135.38 Y91.21 E177.5061
G1 X162.62 Y118.45 E179.4281
G1 X162.62 Y119.02 E179.4565
G1 X135.38 Y91.78 E181.3784
G1 X135.38 Y92.34 E181.4064
G1 X162.62 Y119.58 E183.3283
G1 X162.62 Y120.15 E183.3567
G1 X135.38 Y92.91 E185.2786
G1 X135.38 Y93.48 E185.3071
G1 X162.62 Y120.72 E187.2290
G1 X162.62 Y121.29 E187.2574
G1 X135.38 Y94.05 E189.1794
G1 X135.38 Y94.62 E189.2078
G1 X162.62 Y121.86 E191.1297
G1 X162.62 Y122.43 E191.1582
G1 X135.38 Y95.19 E193.0801
G1 X135.38 Y95.76 E193.1085
G1 X162.62 Y123.00 E195.0304
G1 X162.62 Y123.56 E195.0584
G1 X135.38 Y96.32 E196.9803
G1 X135.38 Y96.89 E197.0087
G1 X162.11 Y123.62 E198.8947
G1 X161.54 Y123.62 E198.9231
G1 X135.38 Y97.46 E200.7689
G1 X135.38 Y98.03 E200.7973
G1 X160.97 Y123.62 E202.6028
G1 X160.40 Y123.62 E202.6313
G1 X135.38 Y98.60 E204.3966
G1 X135.38 Y99.17 E204.4250
G1 X159.83 Y123.62 E206.1501
G1 X159.26 Y123.62 E206.1785
G1 X135.38 Y99.74 E207.8634
G1 X135.38 Y100.30 E207.8913
G1 X158.70 Y123.62 E209.5367
G1 X158.13 Y123.62 E209.5651
G1 X135.38 Y100.87 E211.1702
G1 X135.38 Y101.44 E211.1987
G1 X157.56 Y123.62 E212.7636
G1 X156.99 Y123.62 E212.7921
G1 X135.38 Y102.01 E214.3168
G1 X135.38 Y102.58 E214.3452
G1 X156.42 Y123.62 E215.8297
G1 X155.85 Y123.62 E215.8581
G1 X135.38 Y103.15 E217.3024
G1 X135.38 Y103.71 E217.3303
G1 X155.28 Y123.62 E218.7347
G1 X154.72 Y123.62 E218.7626
G1 X135.38 Y104.28 E220.1272
G1 X135.38 Y104.85 E220.1556
G1 X154.15 Y123.62 E221.4800
G1 X153.58 Y123.62 E221.5084
G1 X135.38 Y105.42 E222.7925
G1 X135.38 Y105.99 E222.8210
G1 X153.01 Y123.62 E224.0648
G1 X152.44 Y123.62 E224.0933
G1 X135.38 Y106.56 E225.2969
G1 X135.38 Y107.13 E225.3254
G1 X151.87 Y123.62 E226.4888
G1 X151.30 Y123.62 E226.5173
G1 X135.38 Y107.69 E227.6409
G1 X135.38 Y108.26 E227.6693
G1 X150.74 Y123.62 E228.7530
G1 X150.17 Y123.62 E228.7815
G1 X135.38 Y108.83 E229.8250
G1 X135.38 Y109.40 E229.8534
G1 X149.60 Y123.62 E230.8567
G1 X149.03 Y123.62 E230.8852
G1 X135.38 Y109.97 E231.8482
G1 X135.38 Y110.54 E231.8767
G1 X148.46 Y123.62 E232.7995
G1 X147.89 Y123.62 E232.8280
G1 X135.38 Y111.11 E233.7106
G1 X135.38 Y111.67 E233.7386
G1 X147.32 Y123.62 E234.5813
G1 X146.76 Y123.62 E234.6093
G1 X135.38 Y112.24 E235.4122
G1 X135.38 Y112.81 E235.4406
G1 X146.19 Y123.62 E236.2033
G1 X145.62 Y123.62 E236.2318
G1 X135.38 Y113.38 E236.9543
G1 X135.38 Y113.95 E236.9827
G1 X145.05 Y123.62 E237.6650
G1 X144.48 Y123.62 E237.6934
G1 X135.38 Y114.52 E238.3354
G1 X135.38 Y115.09 E238.3639
G1 X143.91 Y123.62 E238.9657
G1 X143.35 Y123.62 E238.9937
G1 X135.38 Y115.65 E239.5560
G1 X135.38 Y116.22 E239.5844
G1 X142.78 Y123.62 E240.1065
G1 X142.21 Y123.62 E240.1350
G1 X135.38 Y116.79 E240.6169
G1 X135.38 Y117.36 E240.6453
G1 X141.64 Y123.62 E241.0870
G1 X141.07 Y123.62 E241.1154
G1 X135.38 Y117.93 E241.5169
G1 X135.38 Y118.50 E241.5453
G1 X140.50 Y123.62 E241.9066
G1 X139.93 Y123.62 E241.9350
G1 X135.38 Y119.06 E242.2564
G1 X135.38 Y119.63 E242.2848
G1 X139.37 Y123.62 E242.5663
G1 X138.80 Y123.62 E242.5948
G1 X135.38 Y120.20 E242.8361
G1 X135.38 Y120.77 E242.8645
G1 X138.23 Y123.62 E243.0656
G1 X137.66 Y123.62 E243.0940
G1 X135.38 Y121.34 E243.2549
G1 X135.38 Y121.91 E243.2833
G1 X137.09 Y123.62 E243.4040
G1 X136.52 Y123.62 E243.4324
G1 X135.38 Y122.48 E243.5128
G1 X135.38 Y123.04 E243.5408
G1 X135.95 Y123.62 E243.5814
G1 X135.38 Y123.61 E243.6098
;layer:0.20
;shell
G1 E238.6098 F2400
G1 Z.500 F420
G1 X135.10 Y62.60 F7200
G1 E243.6098 F2400
G1 X135.10 Y62.60 F7200
G1 X145.10 Y62.60 E243.9424 F4800
G1 X155.10 Y62.60 E244.2750 F5040
G1 X162.90 Y62.60 E244.5344 F5280
G1 X162.90 Y64.80 E244.6076
G1 X162.90 Y74.80 E244.9402 F5520
G1 X162.90 Y84.80 E245.2728 F5760
G1 X162.90 Y123.90 E246.5732 F6000
G1 X135.10 Y123.90 E247.4979
G1 X135.10 Y62.60 E249.5367
G1 X134.70 Y62.20 F7200
G1 X163.30 Y62.20 E250.4879 F3000
G1 X163.30 Y124.30 E252.5534
G1 X134.70 Y124.30 E253.5046
G1 X134.70 Y62.20 E255.5701
;infill
G1 X135.80 Y62.88 F7200
G1 X135.38 Y63.30 E255.5898 F4200
G1 X135.38 Y63.87 E255.6088
G1 X136.37 Y62.88 E255.6553
G1 X136.94 Y62.88 E255.6743
G1 X135.38 Y64.44 E255.7477
G1 X135.38 Y65.01 E255.7666
G1 X137.51 Y62.88 E255.8668
G1 X138.08 Y62.88 E255.8858
G1 X135.38 Y65.58 E256.0128
G1 X135.38 Y66.14 E256.0314
G1 X138.64 Y62.88 E256.1847
G1 X139.21 Y62.88 E256.2037
G1 X135.38 Y66.71 E256.3838
G1 X135.38 Y67.28 E256.4028
G1 X139.78 Y62.88 E256.6098
G1 X140.35 Y62.88 E256.6287
G1 X135.38 Y67.85 E256.8625
G1 X135.38 Y68.42 E256.8815
G1 X140.92 Y62.88 E257.1420
G1 X141.49 Y62.88 E257.1610
G1 X135.38 Y68.99 E257.4484
G1 X135.38 Y69.56 E257.4673
G1 X142.05 Y62.88 E257.7813
G1 X142.62 Y62.88 E257.8002
G1 X135.38 Y70.12 E258.1408
G1 X135.38 Y70.69 E258.1597
G1 X143.19 Y62.88 E258.5271
G1 X143.76 Y62.88 E258.5461
G1 X135.38 Y71.26 E258.9402
G1 X135.38 Y71.83 E258.9592
G1 X144.33 Y62.88 E259.3802
G1 X144.90 Y62.88 E259.3991
G1 X135.38 Y72.40 E259.8469
G1 X135.38 Y72.97 E259.8659
G1 X145.47 Y62.88 E260.3405
G1 X146.03 Y62.88 E260.3591
G1 X135.38 Y73.54 E260.8603
G1 X135.38 Y74.10 E260.8789
G1 X146.60 Y62.88 E261.4067
G1 X147.17 Y62.88 E261.4256
G1 X135.38 Y74.67 E261.9802
G1 X135.38 Y75.24 E261.9991
G1 X147.74 Y62.88 E262.5805
G1 X148.31 Y62.88 E262.5995
G1 X135.38 Y75.81 E263.2077
G1 X135.38 Y76.38 E263.2266
G1 X148.88 Y62.88 E263.8616
G1 X149.45 Y62.88 E263.8806
G1 X135.38 Y76.95 E264.5424
G1 X135.38 Y77.52 E264.5614
G1 X150.01 Y62.88 E265.2498
G1 X150.58 Y62.88 E265.2687
G1 X135.38 Y78.08 E265.9837
G1 X135.38 Y78.65 E266.0027
G1 X151.15 Y62.88 E266.7445
G1 X151.72 Y62.88 E266.7634
G1 X135.38 Y79.22 E267.5320
G1 X135.38 Y79.79 E267.5510
G1 X152.29 Y62.88 E268.3464
G1 X152.86 Y62.88 E268.3654
G1 X135.38 Y80.36 E269.1876
G1 X135.38 Y80.93 E269.2066
G1 X153.43 Y62.88 E270.0556
G1 X153.99 Y62.88 E270.0742
G1 X135.38 Y81.49 E270.9495
G1 X135.38 Y82.06 E270.9685
G1 X154.56 Y62.88 E271.8707
G1 X155.13 Y62.88 E271.8896
G1 X135.38 Y82.63 E272.8186
G1 X135.38 Y83.20 E272.8376
G1 X155.70 Y62.88 E273.7933
G1 X156.27 Y62.88 E273.8123
G1 X135.38 Y83.77 E274.7949
G1 X135.38 Y84.34 E274.8139
G1 X156.84 Y62.88 E275.8233
G1 X157.40 Y62.88 E275.8419
G1 X135.38 Y84.91 E276.8779
G1 X135.38 Y85.47 E276.8966
G1 X157.97 Y62.88 E277.9591
G1 X158.54 Y62.88 E277.9781
G1 X135.38 Y86.04 E279.0675
G1 X135.38 Y86.61 E279.0864
G1 X159.11 Y62.88 E280.2026
G1 X159.68 Y62.88 E280.2216
G1 X135.38 Y87.18 E281.3646
G1 X135.38 Y87.75 E281.3836
G1 X160.25 Y62.88 E282.5534
G1 X160.82 Y62.88 E282.5723
G1 X135.38 Y88.32 E283.7690
G1 X135.38 Y88.89 E283.7879
G1 X161.38 Y62.88 E285.0111
G1 X161.95 Y62.88 E285.0301
G1 X135.38 Y89.45 E286.2799
G1 X135.38 Y90.02 E286.2988
G1 X162.52 Y62.88 E287.5754
G1 X162.62 Y62.88 E287.5787
G1 X162.62 Y63.35 E287.5943
G1 X135.38 Y90.59 E288.8756
G1 X135.38 Y91.16 E288.8946
G1 X162.62 Y63.92 E290.1759
G1 X162.62 Y64.49 E290.1949
G1 X135.38 Y91.73 E291.4761
G1 X135.38 Y92.30 E291.4951
G1 X162.62 Y65.06 E292.7764
G1 X162.62 Y65.63 E292.7954
G1 X135.38 Y92.87 E294.0766
G1 X135.38 Y93.43 E294.0953
G1 X162.62 Y66.19 E295.3765
G1 X162.62 Y66.76 E295.3955
G1 X135.38 Y94.00 E296.6768
G1 X135.38 Y94.57 E296.6958
G1 X162.62 Y67.33 E297.9770
G1 X162.62 Y67.90 E297.9960
G1 X135.38 Y95.14 E299.2773
G1 X135.38 Y95.71 E299.2963
G1 X162.62 Y68.47 E300.5776
G1 X162.62 Y69.04 E300.5965
G1 X135.38 Y96.28 E301.8778
G1 X135.38 Y96.84 E301.8964
G1 X162.62 Y69.60 E303.1777
G1 X162.62 Y70.17 E303.1967
G1 X135.38 Y97.41 E304.4779
G1 X135.38 Y97.98 E304.4969
G1 X162.62 Y70.74 E305.7782
G1 X162.62 Y71.31 E305.7972
G1 X135.38 Y98.55 E307.0784
G1 X135.38 Y99.12 E307.0974
G1 X162.62 Y71.88 E308.3787
G1 X162.62 Y72.45 E308.3977
G1 X135.38 Y99.69 E309.6789
G1 X135.38 Y100.26 E309.6979
G1 X162.62 Y73.02 E310.9792
G1 X162.62 Y73.58 E310.9978
G1 X135.38 Y100.82 E312.2791
G1 X135.38 Y101.39 E312.2981
G1 X162.62 Y74.15 E313.5794
G1 X162.62 Y74.72 E313.5983
G1 X135.38 Y101.96 E314.8796
G1 X135.38 Y102.53 E314.8986
G1 X162.62 Y75.29 E316.1799
G1 X162.62 Y75.86 E316.1988
G1 X135.38 Y103.10 E317.4801
G1 X135.38 Y103.67 E317.4991
G1 X162.62 Y76.43 E318.7803
G1 X162.62 Y77.00 E318.7993
G1 X135.38 Y104.24 E320.0806
G1 X135.38 Y104.80 E320.0992
G1 X162.62 Y77.56 E321.3805
G1 X162.62 Y78.13 E321.3995
G1 X135.38 Y105.37 E322.6808
G1 X135.38 Y105.94 E322.6997
G1 X162.62 Y78.70 E323.9810
G1 X162.62 Y79.27 E324.0000
G1 X135.38 Y106.51 E325.2813
G1 X135.38 Y107.08 E325.3002
G1 X162.62 Y79.84 E326.5815
G1 X162.62 Y80.41 E326.6005
G1 X135.38 Y107.65 E327.8818
G1 X135.38 Y108.21 E327.9004
G1 X162.62 Y80.98 E329.1814
G1 X162.62 Y81.54 E329.2001
G1 X135.38 Y108.78 E330.4814
G1 X135.38 Y109.35 E330.5003
G1 X162.62 Y82.11 E331.7816
G1 X162.62 Y82.68 E331.8006
G1 X135.38 Y109.92 E333.0819
G1 X135.38 Y110.49 E333.1008
G1 X162.62 Y83.25 E334.3821
G1 X162.62 Y83.82 E334.4011
G1 X135.38 Y111.06 E335.6824
G1 X135.38 Y111.63 E335.7013
G1 X162.62 Y84.39 E336.9826
G1 X162.62 Y84.95 E337.0012
G1 X135.38 Y112.19 E338.2825
G1 X135.38 Y112.76 E338.3015
G1 X162.62 Y85.52 E339.5828
G1 X162.62 Y86.09 E339.6017
G1 X135.38 Y113.33 E340.8830
G1 X135.38 Y113.90 E340.9020
G1 X162.62 Y86.66 E342.1833
G1 X162.62 Y87.23 E342.2022
G1 X135.38 Y114.47 E343.4835
G1 X135.38 Y115.04 E343.5025
G1 X162.62 Y87.80 E344.7838
G1 X162.62 Y88.37 E344.8027
G1 X135.38 Y115.61 E346.0840
G1 X135.38 Y116.17 E346.1026
G1 X162.62 Y88.93 E347.3839
G1 X162.62 Y89.50 E347.4029
G1 X135.38 Y116.74 E348.6842
