;generated by ffslicer 1.30.3 03/25/23 18:07:28
;right_extruder_material: PLA
;layer_height: 0.2
;perimeter_shells: 2
;top_solid_layers: 4
;bottom_solid_layers: 3
;fill_density: 15%
;fill_pattern: hexagon
;base_print_speed: 100
;travel_speed: 120
;right_extruder_temperature: 205
;left_extruder_temperature: 0
;platform_temperature: 60
;right_extruder_temperature_raft0: 0
;left_extruder_temperature_raft0: 0
;right_extruder_temperature_reset: 
;left_extruder_temperature_reset: 
;start gcode
M140 S60 T0
M104 S205 T0
M104 S0 T1
G90
G28
G1 Z50.000 F420
G161 X Y F3300
M190 S60 T0
M109 S205 T0
M109 S0 T1
G92 E.0000
;layer_count: 450
M108 T0
G1 X97.50 Y96.50 F7200
;preExtrude:0.20
;preExtruder0
G1 Z.200 F420
G1 X97.50 Y96.50 F7200
G1 X31.00 Y96.50 E8.8472 F1200
G1 X31.00 Y43.00 E15.9649
;raft
;layer:0.30
;shell
M106 S255
G1 E10.9649 F2400
G1 Z.300 F420
G1 X39.60 Y51.60 F3000
G1 E15.9649 F2400
G1 X39.60 Y51.60 F3000
G1 X49.60 Y51.60 E16.4638 F1200
G1 X59.60 Y51.60 E16.9627
G1 X69.60 Y51.60 E17.4616
G1 X79.60 Y51.60 E17.9605
G1 X89.60 Y51.60 E18.4594
G1 X128.40 Y51.60 E20.3951
G1 X128.40 Y87.90 E22.2061
G1 X39.60 Y87.90 E26.6364
G1 X39.60 Y51.60 E28.4474
G1 X39.20 Y51.20 F3000
G1 X128.80 Y51.20 E32.9176 F1200
G1 X128.80 Y88.30 E34.7685
G1 X39.20 Y88.30 E39.2386
G1 X39.20 Y51.20 E41.0896
;infill
G1 E36.0896 F2400
G1 X39.88 Y87.61 F3000
G1 E41.0896 F2400
G1 X39.88 Y87.61 F3000
G1 X40.45 Y87.62 E41.1180 F1200
G1 X39.88 Y87.05 E41.1582
G1 X39.88 Y86.48 E41.1867
G1 X41.02 Y87.62 E41.2671
G1 X41.59 Y87.62 E41.2955
G1 X39.88 Y85.91 E41.4162
G1 X39.88 Y85.34 E41.4446
G1 X42.16 Y87.62 E41.6055
G1 X42.72 Y87.62 E41.6334
G1 X39.88 Y84.78 E41.8338
G1 X39.88 Y84.21 E41.8622
G1 X43.29 Y87.62 E42.1028
G1 X43.86 Y87.62 E42.1313
G1 X39.88 Y83.64 E42.4121
G1 X39.88 Y83.08 E42.4400
G1 X44.42 Y87.62 E42.7603
G1 X44.99 Y87.62 E42.7888
G1 X39.88 Y82.51 E43.1493
G1 X39.88 Y81.94 E43.1778
G1 X45.56 Y87.62 E43.5785
G1 X46.13 Y87.62 E43.6070
G1 X39.88 Y81.37 E44.0479
G1 X39.88 Y80.81 E44.0759
G1 X46.69 Y87.62 E44.5563
G1 X47.26 Y87.62 E44.5848
G1 X39.88 Y80.24 E45.1055
G1 X39.88 Y79.67 E45.1339
G1 X47.83 Y87.62 E45.6948
G1 X48.39 Y87.62 E45.7228
G1 X39.88 Y79.11 E46.3232
G1 X39.88 Y78.54 E46.3516
G1 X48.96 Y87.62 E46.9923
G1 X49.53 Y87.62 E47.0207
G1 X39.88 Y77.97 E47.7016
G1 X39.88 Y77.40 E47.7300
G1 X50.09 Y87.62 E48.4507
G1 X50.66 Y87.62 E48.4792
G1 X39.88 Y76.84 E49.2398
G1 X39.88 Y76.27 E49.2682
G1 X51.23 Y87.62 E50.0690
G1 X51.80 Y87.62 E50.0974
G1 X39.88 Y75.70 E50.9385
G1 X39.88 Y75.14 E50.9664
G1 X52.36 Y87.62 E51.8469
G1 X52.93 Y87.62 E51.8754
G1 X39.88 Y74.57 E52.7961
G1 X39.88 Y74.00 E52.8245
G1 X53.50 Y87.62 E53.7855
G1 X54.06 Y87.62 E53.8134
G1 X39.88 Y73.44 E54.8139
G1 X39.88 Y72.87 E54.8424
G1 X54.63 Y87.62 E55.8831
G1 X55.20 Y87.62 E55.9115
G1 X39.88 Y72.30 E56.9924
G1 X39.88 Y71.73 E57.0208
G1 X55.77 Y87.62 E58.1420
G1 X56.33 Y87.62 E58.1699
G1 X39.88 Y71.17 E59.3305
G1 X39.88 Y70.60 E59.3590
G1 X56.90 Y87.62 E60.5598
G1 X57.47 Y87.62 E60.5883
G1 X39.88 Y70.03 E61.8293
G1 X39.88 Y69.46 E61.8578
G1 X58.03 Y87.62 E63.1387
G1 X58.60 Y87.62 E63.1671
G1 X39.88 Y68.90 E64.4879
G1 X39.88 Y68.33 E64.5164
G1 X59.17 Y87.62 E65.8774
G1 X59.74 Y87.62 E65.9058
G1 X39.88 Y67.76 E67.3071
G1 X39.88 Y67.20 E67.3350
G1 X60.30 Y87.62 E68.7757
G1 X60.87 Y87.62 E68.8042
G1 X39.88 Y66.63 E70.2851
G1 X39.88 Y66.06 E70.3136
G1 X61.44 Y87.62 E71.8347
G1 X62.00 Y87.62 E71.8627
G1 X39.88 Y65.50 E73.4234
G1 X39.88 Y64.93 E73.4518
G1 X62.57 Y87.62 E75.0527
G1 X63.14 Y87.62 E75.0811
G1 X39.88 Y64.36 E76.7223
G1 X39.88 Y63.79 E76.7507
G1 X63.71 Y87.62 E78.4320
G1 X64.27 Y87.62 E78.4600
G1 X39.88 Y63.23 E80.1808
G1 X39.88 Y62.66 E80.2093
G1 X64.84 Y87.62 E81.9703
G1 X65.41 Y87.62 E81.9988
G1 X39.88 Y62.09 E83.8000
G1 X39.88 Y61.53 E83.8280
G1 X65.97 Y87.62 E85.6688
G1 X66.54 Y87.62 E85.6972
G1 X39.88 Y60.96 E87.5782
G1 X39.88 Y60.39 E87.6066
G1 X67.11 Y87.62 E89.5279
G1 X67.68 Y87.62 E89.5563
G1 X39.88 Y59.82 E91.5177
G1 X39.88 Y59.26 E91.5457
G1 X68.24 Y87.62 E93.5466
G1 X68.81 Y87.62 E93.5751
G1 X39.88 Y58.69 E95.6162
G1 X39.88 Y58.12 E95.6447
G1 X69.38 Y87.62 E97.7261
G1 X69.94 Y87.62 E97.7540
G1 X39.88 Y57.56 E99.8749
G1 X39.88 Y56.99 E99.9033
G1 X70.51 Y87.62 E102.0644
G1 X71.08 Y87.62 E102.0929
G1 X39.88 Y56.42 E104.2942
G1 X39.88 Y55.86 E104.3221
G1 X71.64 Y87.62 E106.5630
G1 X72.21 Y87.62 E106.5914
G1 X39.88 Y55.29 E108.8725
G1 X39.88 Y54.72 E108.9009
G1 X72.78 Y87.62 E111.2222
G1 X73.35 Y87.62 E111.2506
G1 X39.88 Y54.15 E113.6121
G1 X39.88 Y53.59 E113.6401
G1 X73.91 Y87.62 E116.0411
G1 X74.48 Y87.62 E116.0695
G1 X39.88 Y53.02 E118.5107
G1 X39.88 Y52.45 E118.5391
G1 X75.05 Y87.62 E121.0206
G1 X75.61 Y87.62 E121.0485
G1 X39.88 Y51.89 E123.5695
G1 X40.44 Y51.88 E123.5974
G1 X76.18 Y87.62 E126.1191
G1 X76.75 Y87.62 E126.1475
G1 X41.01 Y51.88 E128.6691
G1 X41.58 Y51.88 E128.6976
G1 X77.32 Y87.62 E131.2192
G1 X77.88 Y87.62 E131.2472
G1 X42.14 Y51.88 E133.7688
G1 X42.71 Y51.88 E133.7973
G1 X78.45 Y87.62 E136.3189
G1 X79.02 Y87.62 E136.3474
G1 X43.28 Y51.88 E138.8690
G1 X43.84 Y51.88 E138.8970
G1 X79.58 Y87.62 E141.4186
G1 X80.15 Y87.62 E141.4471
G1 X44.41 Y51.88 E143.9687
G1 X44.98 Y51.88 E143.9972
G1 X80.72 Y87.62 E146.5188
G1 X81.29 Y87.62 E146.5472
G1 X45.55 Y51.88 E149.0689
G1 X46.11 Y51.88 E149.0968
G1 X81.85 Y87.62 E151.6185
G1 X82.42 Y87.62 E151.6469
G1 X46.68 Y51.88 E154.1686
G1 X47.25 Y51.88 E154.1970
G1 X82.99 Y87.62 E156.7187
G1 X83.55 Y87.62 E156.7466
G1 X47.81 Y51.88 E159.2683
G1 X48.38 Y51.88 E159.2967
G1 X84.12 Y87.62 E161.8184
G1 X84.69 Y87.62 E161.8468
G1 X48.95 Y51.88 E164.3685
G1 X49.52 Y51.88 E164.3969
G1 X85.26 Y87.62 E166.9186
G1 X85.82 Y87.62 E166.9465
G1 X50.08 Y51.88 E169.4681
G1 X50.65 Y51.88 E169.4966
G1 X86.39 Y87.62 E172.0182
G1 X86.96 Y87.62 E172.0467
G1 X51.22 Y51.88 E174.5683
G1 X51.78 Y51.88 E174.5963
G1 X87.52 Y87.62 E177.1179
G1 X88.09 Y87.62 E177.1464
G1 X52.35 Y51.88 E179.6680
G1 X52.92 Y51.88 E179.6965
G1 X88.66 Y87.62 E182.2181
G1 X89.22 Y87.62 E182.2461
G1 X53.48 Y51.88 E184.7677
G1 X54.05 Y51.88 E184.7961
G1 X89.79 Y87.62 E187.3178
G1 X90.36 Y87.62 E187.3462
G1 X54.62 Y51.88 E189.8679
G1 X55.19 Y51.88 E189.8963
G1 X90.93 Y87.62 E192.4180
G1 X91.49 Y87.62 E192.4459
G1 X55.75 Y51.88 E194.9676
G1 X56.32 Y51.88 E194.9960
G1 X92.06 Y87.62 E197.5177
G1 X92.63 Y87.62 E197.5461
G1 X56.89 Y51.88 E200.0678
G1 X57.45 Y51.88 E200.0957
G1 X93.19 Y87.62 E202.6174
G1 X93.76 Y87.62 E202.6458
G1 X58.02 Y51.88 E205.1675
G1 X58.59 Y51.88 E205.1959
G1 X94.33 Y87.62 E207.7176
G1 X94.90 Y87.62 E207.7460
G1 X59.16 Y51.88 E210.2677
G1 X59.72 Y51.88 E210.2956
G1 X95.46 Y87.62 E212.8172
G1 X96.03 Y87.62 E212.8457
G1 X60.29 Y51.88 E215.3673
G1 X60.86 Y51.88 E215.3958
G1 X96.60 Y87.62 E217.9174
G1 X97.16 Y87.62 E217.9454
G1 X61.42 Y51.88 E220.4670
G1 X61.99 Y51.88 E220.4955
G1 X97.73 Y87.62 E223.0171
G1 X98.30 Y87.62 E223.0456
G1 X62.56 Y51.88 E225.5672
G1 X63.13 Y51.88 E225.5957
G1 X98.87 Y87.62 E228.1173
G1 X99.43 Y87.62 E228.1452
G1 X63.69 Y51.88 E230.6669
G1 X64.26 Y51.88 E230.6953
G1 X100.00 Y87.62 E233.2170
G1 X100.57 Y87.62 E233.2454
G1 X64.83 Y51.88 E235.7671
G1 X65.39 Y51.88 E235.7950
G1 X101.13 Y87.62 E238.3167
G1 X101.70 Y87.62 E238.3451
G1 X65.96 Y51.88 E240.8668
G1 X66.53 Y51.88 E240.8952
G1 X102.27 Y87.62 E243.4169
G1 X102.84 Y87.62 E243.4453
G1 X67.10 Y51.88 E245.9670
G1 X67.66 Y51.88 E245.9949
G1 X103.40 Y87.62 E248.5166
G1 X103.97 Y87.62 E248.5450
G1 X68.23 Y51.88 E251.0666
G1 X68.80 Y51.88 E251.0951
G1 X104.54 Y87.62 E253.6167
G1 X105.10 Y87.62 E253.6447
G1 X69.36 Y51.88 E256.1663
G1 X69.93 Y51.88 E256.1948
G1 X105.67 Y87.62 E258.7164
G1 X106.24 Y87.62 E258.7449
G1 X70.50 Y51.88 E261.2665
G1 X71.06 Y51.88 E261.2945
G1 X106.80 Y87.62 E263.8161
G1 X107.37 Y87.62 E263.8446
G1 X71.63 Y51.88 E266.3662
G1 X72.20 Y51.88 E266.3946
G1 X107.94 Y87.62 E268.9163
G1 X108.51 Y87.62 E268.9447
G1 X72.77 Y51.88 E271.4664
G1 X73.33 Y51.88 E271.4943
G1 X109.07 Y87.62 E274.0160
G1 X109.64 Y87.62 E274.0444
G1 X73.90 Y51.88 E276.5661
G1 X74.47 Y51.88 E276.5945
G1 X110.21 Y87.62 E279.1162
G1 X110.77 Y87.62 E279.1441
G1 X75.03 Y51.88 E281.6658
G1 X75.60 Y51.88 E281.6942
G1 X111.34 Y87.62 E284.2159
G1 X111.91 Y87.62 E284.2443
G1 X76.17 Y51.88 E286.7659
G1 X76.74 Y51.88 E286.7944
G1 X112.48 Y87.62 E289.3161
G1 X113.04 Y87.62 E289.3440
G1 X77.30 Y51.88 E291.8656
G1 X77.87 Y51.88 E291.8941
G1 X113.61 Y87.62 E294.4157
G1 X114.18 Y87.62 E294.4442
G1 X78.44 Y51.88 E296.9658
G1 X79.00 Y51.88 E296.9938
G1 X114.74 Y87.62 E299.5154
G1 X115.31 Y87.62 E299.5439
G1 X79.57 Y51.88 E302.0655
G1 X80.14 Y51.88 E302.0939
G1 X115.88 Y87.62 E304.6156
G1 X116.45 Y87.62 E304.6441
G1 X80.71 Y51.88 E307.1657
G1 X81.27 Y51.88 E307.1936
G1 X117.01 Y87.62 E309.7153
G1 X117.58 Y87.62 E309.7437
G1 X81.84 Y51.88 E312.2654
G1 X82.41 Y51.88 E312.2938
G1 X118.15 Y87.62 E314.8155
G1 X118.71 Y87.62 E314.8434
G1 X82.97 Y51.88 E317.3651
G1 X83.54 Y51.88 E317.3935
G1 X119.28 Y87.62 E319.9152
G1 X119.85 Y87.62 E319.9436
G1 X84.11 Y51.88 E322.4653
G1 X84.68 Y51.88 E322.4937
G1 X120.42 Y87.62 E325.0154
G1 X120.98 Y87.62 E325.0433
G1 X85.24 Y51.88 E327.5650
G1 X85.81 Y51.88 E327.5934
G1 X121.55 Y87.62 E330.1150
G1 X122.12 Y87.62 E330.1435
G1 X86.38 Y51.88 E332.6651
G1 X86.94 Y51.88 E332.6931
G1 X122.68 Y87.62 E335.2147
G1 X123.25 Y87.62 E335.2432
G1 X87.51 Y51.88 E337.7648
G1 X88.08 Y51.88 E337.7933
G1 X123.82 Y87.62 E340.3149
G1 X124.39 Y87.62 E340.3434
G1 X88.65 Y51.88 E342.8650
G1 X89.21 Y51.88 E342.8930
G1 X124.95 Y87.62 E345.4146
G1 X125.52 Y87.62 E345.4430
G1 X89.78 Y51.88 E347.9647
G1 X90.35 Y51.88 E347.9931
G1 X126.09 Y87.62 E350.5148
G1 X126.65 Y87.62 E350.5427
G1 X90.91 Y51.88 E353.0644
G1 X91.48 Y51.88 E353.0928
G1 X127.22 Y87.62 E355.6145
G1 X127.79 Y87.62 E355.6429
G1 X92.05 Y51.88 E358.1646
G1 X92.61 Y51.88 E358.1925
G1 X128.12 Y87.38 E360.6976
G1 X128.12 Y86.82 E360.7255
G1 X93.18 Y51.88 E363.1907
G1 X93.75 Y51.88 E363.2192
G1 X128.12 Y86.25 E365.6442
G1 X128.12 Y85.68 E365.6726
G1 X94.32 Y51.88 E368.0574
G1 X94.88 Y51.88 E368.0853
G1 X128.12 Y85.12 E370.4306
G1 X128.12 Y84.55 E370.4590
G1 X95.45 Y51.88 E372.7641
G1 X96.02 Y51.88 E372.7925
G1 X128.12 Y83.98 E375.0573
G1 X128.12 Y83.41 E375.0858
G1 X96.58 Y51.88 E377.3107
G1 X97.15 Y51.88 E377.3392
G1 X128.12 Y82.85 E379.5243
G1 X128.12 Y82.28 E379.5527
G1 X97.72 Y51.88 E381.6976
G1 X98.29 Y51.88 E381.7260
G1 X128.12 Y81.71 E383.8307
G1 X128.12 Y81.15 E383.8586
G1 X98.85 Y51.88 E385.9237
G1 X99.42 Y51.88 E385.9522
G1 X128.12 Y80.58 E387.9771
G1 X128.12 Y80.01 E388.0056
G1 X99.99 Y51.88 E389.9903
G1 X100.55 Y51.88 E390.0182
G1 X128.12 Y79.44 E391.9631
G1 X128.12 Y78.88 E391.9910
G1 X101.12 Y51.88 E393.8960
G1 X101.69 Y51.88 E393.9245
G1 X128.12 Y78.31 E395.7893
G1 X128.12 Y77.74 E395.8177
G1 X102.26 Y51.88 E397.6423
G1 X102.82 Y51.88 E397.6702
G1 X128.12 Y77.18 E399.4553
G1 X128.12 Y76.61 E399.4837
G1 X103.39 Y51.88 E401.2286
G1 X103.96 Y51.88 E401.2570
G1 X128.12 Y76.04 E402.9616
G1 X128.12 Y75.48 E402.9895
G1 X104.52 Y51.88 E404.6546
G1 X105.09 Y51.88 E404.6831
G1 X128.12 Y74.91 E406.3080
G1 X128.12 Y74.34 E406.3364
G1 X105.66 Y51.88 E407.9211
G1 X106.23 Y51.88 E407.9495
G1 X128.12 Y73.77 E409.4940
G1 X128.12 Y73.21 E409.5220
G1 X106.79 Y51.88 E411.0269
G1 X107.36 Y51.88 E411.0553
G1 X128.12 Y72.64 E412.5200
G1 X128.12 Y72.07 E412.5485
G1 X107.93 Y51.88 E413.9730
G1 X108.49 Y51.88 E414.0009
G1 X128.12 Y71.50 E415.3856
G1 X128.12 Y70.94 E415.4135
G1 X109.06 Y51.88 E416.7583
G1 X109.63 Y51.88 E416.7867
G1 X128.12 Y70.37 E418.0913
G1 X128.12 Y69.80 E418.1197
G1 X110.19 Y51.88 E419.3844
G1 X110.76 Y51.88 E419.4129
G1 X128.12 Y69.24 E420.6378
G1 X128.12 Y68.67 E420.6662
G1 X111.33 Y51.88 E421.8508
G1 X111.90 Y51.88 E421.8792
G1 X128.12 Y68.10 E423.0236
G1 X128.12 Y67.54 E423.0516
G1 X112.46 Y51.88 E424.1565
G1 X113.03 Y51.88 E424.1849
G1 X128.12 Y66.97 E425.2496
G1 X128.12 Y66.40 E425.2781
G1 X113.60 Y51.88 E426.3025
G1 X114.16 Y51.88 E426.3305
G1 X128.12 Y65.83 E427.3151
G1 X128.12 Y65.27 E427.3430
G1 X114.73 Y51.88 E428.2877
G1 X115.30 Y51.88 E428.3162
G1 X128.12 Y64.70 E429.2207
G1 X128.12 Y64.13 E429.2491
G1 X115.87 Y51.88 E430.1135
G1 X116.43 Y51.88 E430.1414
G1 X128.12 Y63.57 E430.9662
G1 X128.12 Y63.00 E430.9946
G1 X117.00 Y51.88 E431.7792
G1 X117.57 Y51.88 E431.8076
G1 X128.12 Y62.43 E432.5520
G1 X128.12 Y61.86 E432.5804
G1 X118.13 Y51.88 E433.2849
G1 X118.70 Y51.88 E433.3134
G1 X128.12 Y61.30 E433.9780
G1 X128.12 Y60.73 E434.0064
G1 X119.27 Y51.88 E434.6308
G1 X119.84 Y51.88 E434.6593
G1 X128.12 Y60.16 E435.2435
G1 X128.12 Y59.60 E435.2714
G1 X120.40 Y51.88 E435.8161
G1 X120.97 Y51.88 E435.8445
G1 X128.12 Y59.03 E436.3490
G1 X128.12 Y58.46 E436.3774
G1 X121.54 Y51.88 E436.8417
G1 X122.10 Y51.88 E436.8696
G1 X128.12 Y57.90 E437.2944
G1 X128.12 Y57.33 E437.3228
G1 X122.67 Y51.88 E437.7073
G1 X123.24 Y51.88 E437.7358
G1 X128.12 Y56.76 E438.0801
G1 X128.12 Y56.19 E438.1085
G1 X123.81 Y51.88 E438.4126
G1 X124.37 Y51.88 E438.4405
G1 X128.12 Y55.63 E438.7052
G1 X128.12 Y55.06 E438.7336
G1 X124.94 Y51.88 E438.9580
G1 X125.51 Y51.88 E438.9864
G1 X128.12 Y54.49 E439.1706
G1 X128.12 Y53.93 E439.1985
G1 X126.07 Y51.88 E439.3431
G1 X126.64 Y51.88 E439.3715
G1 X128.12 Y53.36 E439.4760
G1 X128.12 Y52.79 E439.5044
G1 X127.21 Y51.88 E439.5687
G1 X127.78 Y51.88 E439.5971
G1 X128.12 Y52.22 E439.6211
;layer:0.20
;shell
G1 E434.6211 F2400
G1 Z.500 F420
G1 X39.60 Y51.60 F7200
G1 E439.6211 F2400
G1 X39.60 Y51.60 F7200
G1 X49.60 Y51.60 E439.9537 F4800
G1 X59.60 Y51.60 E440.2863 F5040
G1 X69.60 Y51.60 E440.6189 F5280
G1 X79.60 Y51.60 E440.9515 F5520
G1 X89.60 Y51.60 E441.2841 F5760
G1 X128.40 Y51.60 E442.5745 F6000
G1 X128.40 Y87.90 E443.7819
G1 X39.60 Y87.90 E446.7354
G1 X39.60 Y51.60 E447.9427
G1 X39.20 Y51.20 F7200
G1 X128.80 Y51.20 E450.9228 F3000
G1 X128.80 Y88.30 E452.1568
G1 X39.20 Y88.30 E455.1369
G1 X39.20 Y51.20 E456.3708
;infill
G1 X40.22 Y51.88 F7200
G1 X39.88 Y52.22 E456.3868 F4200
G1 X39.88 Y52.79 E456.4058
G1 X40.79 Y51.88 E456.4486
G1 X41.36 Y51.88 E456.4676
G1 X39.88 Y53.36 E456.5372
G1 X39.88 Y53.93 E456.5561
G1 X41.93 Y51.88 E456.6526
G1 X42.49 Y51.88 E456.6712
G1 X39.88 Y54.49 E456.7940
G1 X39.88 Y55.06 E456.8130
G1 X43.06 Y51.88 E456.9625
G1 X43.63 Y51.88 E456.9815
G1 X39.88 Y55.63 E457.1579
G1 X39.88 Y56.19 E457.1765
G1 X44.19 Y51.88 E457.3792
G1 X44.76 Y51.88 E457.3982
G1 X39.88 Y56.76 E457.6277
G1 X39.88 Y57.33 E457.6467
G1 X45.33 Y51.88 E457.9030
G1 X45.90 Y51.88 E457.9220
G1 X39.88 Y57.90 E458.2052
G1 X39.88 Y58.46 E458.2238
G1 X46.46 Y51.88 E458.5333
G1 X47.03 Y51.88 E458.5522
G1 X39.88 Y59.03 E458.8885
G1 X39.88 Y59.60 E458.9075
G1 X47.60 Y51.88 E459.2707
G1 X48.16 Y51.88 E459.2893
G1 X39.88 Y60.16 E459.6787
G1 X39.88 Y60.73 E459.6977
G1 X48.73 Y51.88 E460.1140
G1 X49.30 Y51.88 E460.1330
G1 X39.88 Y61.30 E460.5760
G1 X39.88 Y61.87 E460.5950
G1 X49.87 Y51.88 E461.0649
G1 X50.43 Y51.88 E461.0836
G1 X39.88 Y62.43 E461.5798
G1 X39.88 Y63.00 E461.5988
G1 X51.00 Y51.88 E462.1219
G1 X51.57 Y51.88 E462.1408
G1 X39.88 Y63.57 E462.6907
G1 X39.88 Y64.13 E462.7093
G1 X52.13 Y51.88 E463.2855
G1 X52.70 Y51.88 E463.3045
G1 X39.88 Y64.70 E463.9075
G1 X39.88 Y65.27 E463.9264
G1 X53.27 Y51.88 E464.5562
G1 X53.83 Y51.88 E464.5749
G1 X39.88 Y65.84 E465.2313
G1 X39.88 Y66.40 E465.2499
G1 X54.40 Y51.88 E465.9329
G1 X54.97 Y51.88 E465.9518
G1 X39.88 Y66.97 E466.6616
G1 X39.88 Y67.54 E466.6806
G1 X55.54 Y51.88 E467.4172
G1 X56.10 Y51.88 E467.4358
G1 X39.88 Y68.10 E468.1988
G1 X39.88 Y68.67 E468.2177
G1 X56.67 Y51.88 E469.0075
G1 X57.24 Y51.88 E469.0264
G1 X39.88 Y69.24 E469.8430
G1 X39.88 Y69.80 E469.8616
G1 X57.80 Y51.88 E470.7045
G1 X58.37 Y51.88 E470.7235
G1 X39.88 Y70.37 E471.5932
G1 X39.88 Y70.94 E471.6122
G1 X58.94 Y51.88 E472.5087
G1 X59.51 Y51.88 E472.5277
G1 X39.88 Y71.51 E473.4510
G1 X39.88 Y72.07 E473.4697
G1 X60.07 Y51.88 E474.4193
G1 X60.64 Y51.88 E474.4383
G1 X39.88 Y72.64 E475.4148
G1 X39.88 Y73.21 E475.4338
G1 X61.21 Y51.88 E476.4371
G1 X61.77 Y51.88 E476.4557
G1 X39.88 Y73.77 E477.4853
G1 X39.88 Y74.34 E477.5043
G1 X62.34 Y51.88 E478.5608
G1 X62.91 Y51.88 E478.5797
G1 X39.88 Y74.91 E479.6630
